!!!ONB: MCCC : IGF0061_00 : Extracted Monophonic Melody
!!!COM: Fauré, Gabriel
!!!OTL: Nocturne No.12 in E minor, Op.107
!!!SCT: Op.107
!!!ODT: 1916///
**kern
*staff1
=1
*clefG2
*k[]
*C:
*M12/8
4.b[
8b]
4g#
4.b[
8b]
4b[
=2
4b]
8a[
8a]
4g[
4g]
8f#[
8f#]
4e
=3
2.r
4r
8f[
4.f]
=4
4.r
8r
4e
2.B
=5
8.B
8.c
8.d
8.e-
8.f
8.g
4.a
=6
4.dd[
8dd]
4b
4.dd[
8dd]
4dd[
=7
4dd]
8cc[
8cc]
4b-[
4b-]
8a[
8a]
4g
=8
4g
8f[
8f]
4g[
8g]
8f
8g#[
8g#]
4g
=9
4g
8f[
8f]
4g
2.d
=10
4.d
4.f
8.g#
8.b-
16.cc[
16.cc]
8.dd
=11
4.ff[
8ff]
4dd
4.ff[
8ff]
4dd
=12
4.ff#[
8ff#]
4dd
4.ff#[
8ff#]
8dd[
8dd]
=13
8gg[
8gg]
8ff#[
8ff#]
8ee-
8ee-[
8ee-]
8dd
8cc[
8cc]
8b[
8b]
=14
8b
8b
8a[
8a]
8b
8b[
8b]
8a
8cc[
8cc]
8b
8b
=15
8b[
8b]
8a
8a
4a
8c
8A
8B
4r
8e
=16
4.e
4.g
8.b-
8.cc
16.dd[
16.dd]
8.ee
=17
4.gg[
8gg]
4ee
8gg[
8gg]
8ee
8dd[
8dd]
8b-
=18
8b[
8b]
8a
8a[
8a]
8f
4.e[
4e]
8e
=19
4.e[
8e]
4e
4.e[
8e]
4e
=20
4.e[
8e]
4e
4.e[
8e]
4e
=21
1.r
=22
1.r
=23
8r
16b
16b
16b[
16b]
8r
16g
16g
16g[
16g]
8r
16a
16a
16a[
16a]
8r
16b
16b
16b[
16b]
=24
8r
16cc
16cc
16cc[
16cc]
8r
16g#
16g#
16g#[
16g#]
8r
16b
16b
16b[
16b]
8r
16cc
16cc
16cc[
16cc]
=25
4.dd
8.b-
8.cc
16cc
16cc
16cc
16cc
16cc
16cc
16cc
16cc
16cc
16cc
16cc[
16cc]
=26
4.ff
8.dd
8.ee
4.ee[
8ee]
8ff
8gg
=27
8r
16bb-
16bb-
16bb-[
16bb-]
8r
16aa
16aa
16aa[
16aa]
8r
16gg
16gg
16gg[
16gg]
8r
16aa
16aa
16aa[
16aa]
=28
8r
16ccc
16ccc
16ccc[
16ccc]
8r
16bb-
16bb-
16bb-[
16bb-]
8r
16gg#
16gg#
16gg#[
16gg#]
8r
16aa
16aa
16aa[
16aa]
=29
8r
16eee
16eee
16eee[
16eee]
8r
16ddd
16ddd
16ddd[
16ddd]
8r
16ccc
16ccc
16ccc[
16ccc]
8r
16bb-
16bb-
16bb-[
16bb-]
=30
8r
16aa
16aa
16aa[
16aa]
8r
16gg
16gg
16gg[
16gg]
8r
16ff
16ff
16ff[
16ff]
8r
16ee
16ee
16ee[
16ee]
=31
4.ee
8.dd
8.ee
4.ee
8ee
4ee[
=32
8.ee]
8.ff#
8.dd
8.ee
16ee
16ee
16ee
16ee
8ee[
8.ee]
8.ff#
=33
8r
16gg#
16gg#
16gg#[
16gg#]
8r
16ff#
16ff#
16ff#[
16ff#]
8r
16gg#
16gg#
16gg#[
16gg#]
8r
16bb-
16bb-
16bb-
16aa#
=34
8r
16bb
16bb
16bb[
16bb]
8r
16aa
16aa
16aa[
16aa]
8r
16bb
16bb
16bb[
16bb]
8r
16ccc#
16ccc#
16ccc#[
16ccc#]
=35
4.ddd
8.ccc#
8.ddd
4.ddd
4.ddd
=36
8.ddd
8.eee
8.ccc
8.ddd
16ddd
16ddd
16ddd
16ddd
8ddd[
8.ddd]
8.eee
=37
4.fff#[
8fff#]
4ccc#
4.fff#[
8fff#]
4eee-
=38
4.ddd[
8ddd]
4aa#
4.ddd[
8ddd]
4bb
=39
4.bb-[
8bb-]
4ff#
4.gg#[
8gg#]
4ee
=40
4.ee[
8ee]
4cc
4.dd[
8dd]
16b-
16b-
16b-[
16b-]
=41
8b-
8b-
8b-[
8b-]
8f#[
8f#]
8b-
8b-
8b-[
8b-]
8b-[
8b-]
=42
8b
8b
8b[
8b]
8g[
8g]
8b
8b
8b[
8b]
8b
8b[
=43
4b]
8a[
8a]
4g[
4g]
8f#[
8f#]
4e
=44
8e[
8e]
8d[
8d]
8e
8e[
8e]
8d
8f[
4.f]
=45
4.r
8r
4e
2.B
=46
8.B
8.c
8.d
8.e-
8.f
8.g
4.a
=47
4.dd[
8dd]
4b
4.dd[
8dd]
4dd[
=48
4dd]
8cc[
8cc]
4b-[
4b-]
8a[
8a]
4g
=49
4g
8f[
8f]
4g[
8g]
8f
8g#[
8g#]
4g
=50
4g
8f[
8f]
4g
2.d
=51
4.d
4.f
8.g#
8.b-
16.cc[
16.cc]
8.dd
=52
4.ff[
8ff]
4dd
4.ff[
8ff]
4dd
=53
4.ff#[
8ff#]
4dd
4.ff#[
8ff#]
8dd[
8dd]
=54
8gg[
8gg]
8ff#[
8ff#]
8ee-
8ee-[
8ee-]
8dd
8cc[
8cc]
8b[
8b]
=55
8b
8b
8a[
8a]
8b
8b[
8b]
8a
8cc[
8cc]
8b
8b
=56
8b[
8b]
8a
8a
4a
8c
8A
8B
4r
8e
=57
4.e
4.g
8.b-
8.cc
16.dd[
16.dd]
8.ee
=58
4.gg[
8gg]
4ee
8gg[
8gg]
8ee
8dd[
8dd]
8b-
=59
8b[
8b]
8a
8a[
8a]
8f
4.e[
4e]
8e
=60
4.e[
8e]
4e
4.e[
8e]
4e
=61
8r
16g#
16g#
16g#[
16g#]
8r
16g
16g
16g[
16g]
8r
16f
16f
16f[
16f]
8r
16g
16g
16g[
16g]
=62
8r
16b-
16b-
16b-[
16b-]
8r
16g#
16g#
16g#[
16g#]
8r
16f
16f
16f[
16f]
8r
16g
16g
16g[
16g]
=63
4.g
8.f
8.g
4.g
4.g
=64
8.b
8.a
8.f
8.g
16g
16g
4g[
8.g]
8.a
=65
8b
8b
8b[
8b]
8b
8b
8b
8b
8b[
8b]
8b[
8b]
=66
1.r
=67
1.r
=68
8r
16b-
16b-
16b-[
16b-]
8r
16f#
16f#
16f#[
16f#]
8r
16g#
16g#
16g#[
16g#]
8r
16b-
16b-
16b-
16a#
=69
8r
16b
16b
16b[
16b]
8r
16g
16g
16g[
16g]
8r
16b-
16b-
16b-[
16b-]
8r
16b
16b
16b[
16b]
=70
8r
16b
16b
16b[
16b]
8r
16g
16g
16g[
16g]
8r
16a
16a
16a[
16a]
8r
16b
16b
16b[
16b]
=71
8r
16cc
16cc
16cc[
16cc]
8r
16g#
16g#
16g#[
16g#]
8r
16b
16b
16b[
16b]
8r
16cc
16cc
16cc[
16cc]
=72
8r
16cc#
16cc#
16cc#[
16cc#]
8r
16b
16b
16b[
16b]
8r
16cc
16cc
16cc[
16cc]
8r
16ee-
16ee-
16ee-
16dd#
=73
8r
16ee
16ee
16ee[
16ee]
8r
16dd
16dd
16dd[
16dd]
8r
16ee
16ee
16ee[
16ee]
8r
16ff#
16ff#
16ff#[
16ff#]
=74
4.bb
8.aa
8.bb
4.bb
4.bb[
=75
8.bb]
8.ccc#
8.aa
8.bb
4.bb[
4.bb]
=76
4bb
8aa[
8aa]
4gg[
2.gg]
=77
4gg
8ff#[
8ff#]
4ee[
2.ee]
=78
4.ee
8.dd
8.ee
2.ee[
=79
8.ee]
8.ee
8.dd
8.ff
4.ff
4.ee
=80
4.gg
8.ff
8.gg
2.gg[
=81
8.gg]
8.gg
8.ff
8.gg#
4.gg#
4.gg
=82
8.ff#
8.bb
8.aa
8.ccc
4.ccc
4.bb
=83
4eee
8ddd[
8ddd]
4ccc[
4ccc]
8bb-[
8bb-]
4aa[
=84
4aa]
8gg[
8gg]
4ff[
4ff]
8ee[
8ee]
4ee-
=85
4bb
8aa[
8aa]
4gg[
4gg]
8ff[
8ff]
4ee[
=86
4ee]
8dd[
8dd]
4cc[
4cc]
8b[
8b]
4b
=87
4.b
8.a
8.b
4.b
8.b
8.b[
=88
8.b]
8.ee-
8.gg#
8.bb
4.bb
4.b
=89
8.g#
8.b
8.a
8.b
8.b
8.b
8.b
8.b[
=90
8b]
8g#
8b
8ee-
8gg#
8bb
4.bb
4.b
=91
1.r
=92
4.r
8r
8b-
8a#
8b
4b[
4b]
8b
=93
8ee[
8ee]
8dd[
8dd]
8ff#[
8ff#]
8ee-[
8ee-]
8ff#[
8ff#]
8ee[
8ee]
=94
8gg#[
8gg#]
8gg[
8gg]
8bb-
8aa#
8bb
4bb[
4bb]
8bb
=95
4.bb[
8bb]
4gg#
4.bb[
8bb]
4b
=96
4.b[
8b]
4g
2.b
=97
4r
8c[
4.c]
2.r
=98
1.r
=99
4.b[
8b]
4g#
4.b[
8b]
4b
=100
4.b[
8b]
4g
2.b
=101
1.r
=102
1.r
=103
1.r
=104
1.r
=105
1.r
=106
1.r
=107
1.r
==
*-
